X:212
T:Hunters Chorus to Der Friechuzt TS.212
M:2/4
L:1/8
Q:1/4=100
S:Thomas Sands’ MS,1810,Lincolnshire
R:air
C:Carl Maria von Weber 1821
O:England;Lincolnshire
Z:vmp.Ruairidh Greig, 2011
K:G
D|G2G/A/B/c/|d2B2|Ad Ad|B/c/B/A/ GD|G2G/A/B/c/|d2B2|Ad fe|d2z:|
A|B2BB|G2GG|c2cc|A2AA|B2BB|G2GG|c2cc|A3||
A|B2BVB|c2BB|A2AA|B2G2|B2BB|c2B2|A2AA|G3||
D/D/|DD/D/ DD/D/|DD/D/ DD/D/|G2DB|G2DB|{d/}cA {d/}cA|{d/}cA {d/}cA|G2DB|
G2DB|{d/}cA {d/}cA|{d/}cA {d/}cA|BG/B/ d2|BG/B/ d2|BG/G/ GG/G/|
GG/G/ Gd/d/|dB/B/ Bg/g/|gd/d/ dg/g/|bb (a/g/f/e/)|e2dd/d/|dB/B/ Bg/g/|
gd/d/ dg/g/|bb a/g/f/a/|g/f/g/b/ a/f/d/f/|g/f/g/b/ a/f/d/f/|gg/g/ gg|g2z|]

